X:2408
T:Tappaghyn jiargey 
T:Red top-knots 
C:Traditional
O:Isle of Man
Z:Kiaull Vannin 408 
M:3/4 
L:1/8 
Q:160 
K:G 
(BA)|G2 E2 E2|E2 G2 (BA)|G2 E2 E2|G4 (AB)|c2 c2 (dc)|(BA) (GF) (ED)|E2 e2 e2| 
d4 (Bd)|d>c (B/c/d) e>d|(d>c) (B/c/d) e>d|(B>e) e2 (d>B)|G>B dB Gz|E2 .e .e E2|E2 AA B2|| 

